!!!!SEGMENT: pl-kk--kk-i-8--024_anonim-jesu-corona-celsior.krn
!!!id: 16xx:1165
!!!COM: Anonim
!!!OTL: Jesu corona celsior
!!!PDT:
!!!SMS-siglum: PL-Kk
!!!SMS-shelfmark: Kk.I.8
!!!NIFC-rismID: 1001148993
!!!URL-scan: http://repozytorium.nifc.pl/skany/pl-kk-nut--i-8
!!!ONB-nifc: UWAGA: A (skan 0013), T1 (0036), T2 (0060), B (0083). Następny utwór: Virginis proles opifex
!!!SMS-variant:
!!!SMS-altvar:
**kern	**fba	**text	**text	**text	**text	**text	**kern	**text	**text	**text	**text	**text	**kern	**text	**text	**text	**text	**text	**kern	**text	**text	**text	**text	**text
*part4	*	*part4	*part4	*part4	*part4	*part4	*part3	*part3	*part3	*part3	*part3	*part3	*part2	*part2	*part2	*part2	*part2	*part2	*part1	*part1	*part1	*part1	*part1	*part1
*staff4	*	*staff4	*staff4	*staff4	*staff4	*staff4	*staff3	*staff3	*staff3	*staff3	*staff3	*staff3	*staff2	*staff2	*staff2	*staff2	*staff2	*staff2	*staff1	*staff1	*staff1	*staff1	*staff1	*staff1
*I"BASSVS.	*	*	*	*	*	*	*I"Tenor 2dus.	*	*	*	*	*	*I"Tenore 1mo	*	*	*	*	*	*I"alto.	*	*	*	*	*
*I'B	*	*	*	*	*	*	*I'T 2	*	*	*	*	*	*I'T 1	*	*	*	*	*	*I'A	*	*	*	*	*
*clefF4	*	*	*	*	*	*	*clefC4	*	*	*	*	*	*clefC4	*	*	*	*	*	*clefC3	*	*	*	*	*
*k[]	*	*	*	*	*	*	*k[]	*	*	*	*	*	*k[]	*	*	*	*	*	*k[]	*	*	*	*	*
*M3/2	*	*	*	*	*	*	*M3/2	*	*	*	*	*	*M3/2	*	*	*	*	*	*M3/2	*	*	*	*	*
=1	=1	=1	=1	=1	=1	=1	=1	=1	=1	=1	=1	=1	=1	=1	=1	=1	=1	=1	=1	=1	=1	=1	=1	=1
*	*	*	*	*	*	*	*all\right	*	*	*	*	*	*all\right	*	*	*	*	*	*	*	*	*	*	*
2D/	.	Je-	Da	An-	Te	Pro-	2A/	Je-	Da	An-	Te	Pro-	2d\	Je-	Da	An-	Te	Pro-	2A/	Je-	Da	An-	Te	Pro-
2D/	.	-ſu	ſup-	-ni	Chri-	-in-	2A/	-ſu	ſup-	-ni	Chri-	-in-	2f\	-ſu	ſup-	-ni	Chri-	-in-	2d\	-ſu	ſup-	-ni	X-	-in-
2C#X/	.	Co-	-pli-	re-	-ſte	-de	2A/	Co-	-pli-	re-	-ſte	-de	2e\	Co-	-pli-	re-	-ſte	-de	2e\	Co-	-li-	re-	-ſte	-de
=2	=2	=2	=2	=2	=2	=2	=2	=2	=2	=2	=2	=2	=2	=2	=2	=2	=2	=2	=2	=2	=2	=2	=2	=2
1D\	.	-ro-	-can-	-ver-	Rex	te	1A\	-ro-	-can-	-ver-	Rex	te	1d\	-ro-	-can-	-ver-	Rex	te	1f\	-ro-	-can-	-ver-	Rex	te
2GG/	.	-na	-ti	-so	pi-	pi-	2B-X/	-na	-ti	-ſo	pi-	pi-	2d\	-na	-ti	-ſo	pi-	pi-	2g\	-na	-ti	-so	pi-	pi-
=3-	=3-	=3	=3	=3	=3	=3	=3	=3	=3	=3	=3	=3	=3	=3	=3	=3	=3	=3	=3	=3	=3	=3	=3	=3
2.AA/	.	cel-	coe-	tem-	-iſ-	-iſ-	2.A/	cel-	coe-	tem-	-iſ-	-iſ-	2.c#X\	cel-	coe-	tem-	-iſ-	-iſ-	2.e\	cel-	coe-	tem-	-iſ-	-iſ-
4AA/	.	-ſi-	-tu-	-po-	-si-	-si-	4A/	-si-	-tu-	-po-	-si-	-si-	4c#\	-ſi-	-tu-	-po-	-si-	-si-	4e\	-ſi-	-tu-	-po-	-si-	-si-
2AA/	.	-or	-i	-re	-me	-me	2A/	-or	-i	-re	-me	-me	2c#\	-or	-i	-re	-me	-me	2e\	-or	-i	-re,	-me,	-me
=4	=4	=4	=4	=4	=4	=4	=4	=4	=4	=4	=4	=4	=4	=4	=4	=4	=4	=4	=4	=4	=4	=4	=4	=4
!	!	!	!	!	!	!	!LO:N:acc=#	!	!	!	!	!	!	!	!	!	!	!	!	!	!	!	!	!
*all\right	*	*	*	*	*	*	*	*	*	*	*	*	*	*	*	*	*	*	*	*	*	*	*	*
2G#X\	6	et	Hu-	di-	Hic	Prae-	2Bn\	et	Hu-	Di-	Hic	Prae-	2B\	et	Hu-	di-	Hic	Prae-	2e\	et	hu-	di-	hic	prae-
2.G#\	.	Ve-	-ius	-es	con-	-ca-	2.B\	Ve-	-ius	-es	con-	-ca-	2.B\	Ve-	-ius	-es	con-	-ca-	2.e\	Ve-	-jus	-es	con-	-ca-
4G#\	.	-ri-	ro-	re-	-fi-	-mur	4B\	-ri-	ro-	re	-fi	-mur	4B\	-ri-	ro-	re-	-fi-	-mur	4d\	-ri-	ro-	re-	-fi-	-mur
=5	=5	=5	=5	=5	=5	=5	=5	=5	=5	=5	=5	=5	=5	=5	=5	=5	=5	=5	=5	=5	=5	=5	=5	=5
*	*	*	*	*	*	*	*	*	*	*	*	*	*	*	*	*	*	*	*	*	*	*	*	*ij
2A\	.	-tas	-ga-	-ful-	-ten-	Prae-	1.A\	tas	-ga-	ful-	ten-	om-	2c\	-tas	-ga-	-ful-	-ten-	Prae-	1.c\	-taſ	-ga-	-ful-	-ten-	prae-
2.A\	.	Ve-	-tu	-sit	.	-ca-	.	.	.	.	.	.	2.c\	Ve-	-tu	-sit	-do	-ca-	.	.	.	.	.	.
*	*	*	*	*	*	*	*	*ij	*	*	*	*	*	*	*	*	*ij	*	*	*	*	*	*	*
4G\	.	-ri-	ro-	re-	.	-mur	.	.	.	.	.	.	4B\	-ri-	ro-	re-	hic	-mur	.	.	.	.	.	.
=6	=6	=6	=6	=6	=6	=6	=6	=6	=6	=6	=6	=6	=6	=6	=6	=6	=6	=6	=6	=6	=6	=6	=6	=6
4F\	.	-tas	-ga-	-ful-	.	om-	2A/	et-	-tu	-sit	-do	-nes	1A\	-tas	-ga-	-ful-	con-	om-	2f\	et	-tu	-sit	-do	-ca-
4E\	.	.	.	.	.	.	.	.	.	.	.	.	.	.	.	.	.	.	.	.	.	.	.	.
*	*	*	*	*	*	*	*	*	*	*	*	*ij	*	*	*	*	*	*	*	*	*ij	*ij	*ij	*
2.D/	.	.	.	.	.	.	2.A/	ve-	ro-	re-	con-	Prae-	.	.	.	.	.	.	2f\	Ve-	hu-	di-	con-	.
.	.	.	.	.	.	.	.	.	.	.	.	.	2A\	ſub-	-tu	-sit	-fi-	-nes	2e\	-ri-	-ius	-es	-fi-	-mur
*	*	*	*	*	*	*	*	*	*	*	*	*	*	*	*ij	*	*	*	*	*	*	*	*	*Xij
4C/	.	.	.	.	.	.	4A/	-ri-	-ga-	-ful-	-fi-	-ca-	.	.	.	.	.	.	.	.	.	.	.	.
=7	=7	=7	=7	=7	=7	=7	=7	=7	=7	=7	=7	=7	=7	=7	=7	=7	=7	=7	=7	=7	=7	=7	=7	=7
1BB/	.	.	.	.	.	.	1B\	-tas	-tu	-sit	-ten-	-mur	1B\	-li-	ro-	.	-ten-	.	1d\	-taſ	ro-	re-	-ten-	om-
2C/	.	ſub-	-tu	-sit	-do	-nes	2e\	.	.	.	-do	om-	2A\	.	-ga-	.	-do	.	2e\	sub-	-ga-	-ful-	-do	-nes
*	*	*	*	*	*	*	*	*Xij	*	*	*	*	*	*	*	*	*Xij	*	*	*	*	*	*Xij	*
=8	=8	=8	=8	=8	=8	=8	=8	=8	=8	=8	=8	=8	=8	=8	=8	=8	=8	=8	=8	=8	=8	=8	=8	=8
2D\	.	-li-	no-	lu-	iu-	ſup-	2f\	ſub-	no-	lu-	iu-	-nes	2A\	.	-tu	.	ju-	.	2c/	-li-	-tu	-sit	ju-	su-
*	*	*	*	*	*	*	*	*	*	*	*	*Xij	*	*	*Xij	*	*	*	*	*	*Xij	*Xij	*	*
2.E\	.	.	.	.	.	.	2.e\	li-	.	.	.	ſup-	2.A\	.	no-	lu-	.	ſup-	2.B/	.	no-	lu-	-gi-	.
4E\	.	-mi-	-xi-	-mi-	-gi-	-pli-	4e\	-mi-	-xi-	-mi-	-gi-	-pli-	4G#X\	-mi-	-xi-	-mi-	-gi-	-pli-	4B/	-mi-	-xi-	-mi-	.	-pli-
=9	=9	=9	=9	=9	=9	=9	=9	=9	=9	=9	=9	=9	=9	=9	=9	=9	=9	=9	=9	=9	=9	=9	=9	=9
!LO:SIC:v:l:s=-i:verse2	!	!	!	!	!	!	!LO:SIC:v:l:s=-i:verse2	!	!	!	!	!	!LO:SIC:v:l:s=-i:verse2	!	!	!	!	!	!LO:SIC:v:l:s=-i:verse2	!	!	!	!	!
1.AA/;<	.	-or	-j	-ne	-ter	-ces	1.e\;<	-or	-j	-ne	-ter	-ces	1.A\	-or	-j	-ne	-ter	-ces	1.A/	-or	-j	-ne	-ter,	-ces,
=10||	=10||	=10||	=10||	=10||	=10||	=10||	=10||	=10||	=10||	=10||	=10||	=10||	=10||	=10||	=10||	=10||	=10||	=10||	=10	=10||	=10||	=10||	=10||	=10||
2C/	.	Qui	Re-	Quo	Cal-	No-	2c\	Qui	Re-	Quo	Cal-	No-	2G/	Qui	Re-	Quo	Cal-	No-	2e\	qui	Re-	Quo	Cal-	no-
2C/	.	con-	-miſ-	San-	-ca-	-bis	2c\	con-	-miſ-	San-	-ca-	-bis	2G/	con-	-miſ-	San-	-ca-	-bis	2e\	con-	-miſ-	S(an)-	-ca-	-bis
!	!	!	!	!	!	!	!	!	!	!	!	!	!	!	!	!	!	!	!LO:TX:t=P:problem:♯above	!	!	!	!	!
2AA/	.	-fi-	-si-	-ctus	-uit	ut	2c\	-fi-	-si-	-ctus	-vit	ut	2A/	-fi-	-si-	-ctus	-vit	ut	2f#\	-fi-	-si-	-ct(us)	-vit	ut
=11	=11	=11	=11	=11	=11	=11	=11	=11	=11	=11	=11	=11	=11	=11	=11	=11	=11	=11	=11	=11	=11	=11	=11	=11
2.GG/	.	-ten-	-o-	hic	ar-	hu-	1d\	-ten-	-o-	hic	ar-	hu-	1B-X\	-ten-	-o-	hic	ar-	hu-	1g\	-ten-	-o-	hic	àr-	hu-
4AA/	.	.	.	.	.	.	.	.	.	.	.	.	.	.	.	.	.	.	.	.	.	.	.	.
2BB-X/	.	.	.	.	.	.	2d\	-ti	-nem	de	-tes	-ius	2B-/	-ti	-nem	de	-tes	-ius	2g\	-ti	-ne(m)	de	-tes	-jus
=12	=12	=12	=12	=12	=12	=12	=12	=12	=12	=12	=12	=12	=12	=12	=12	=12	=12	=12	=12	=12	=12	=12	=12	=12
2C/	.	-ti	-nem	de	-tes	-ius	2e\	.	.	.	.	.	2B/	.	.	.	.	.	1g\	ſer-	Cri-	Cor-	Dae-	gra-
2.D/	.	ſer-	Cri-	cor-	Dae-	gra-	2.d\	ſer-	Cri-	cor-	Dae-	gra-	2.A/	ſer-	Cri-	cor-	dae-	gra-	.	.	.	.	.	.
!	!	!	!	!	!	!	!	!	!	!	!	!	!	!	!	!	!	!	!LO:TX:t=P:problem:♯above	!	!	!	!	!
.	.	.	.	.	.	.	.	.	.	.	.	.	.	.	.	.	.	.	2f#X\	-vu-	-mi-	-po-	-mo-	-ti-
4D/	.	-uu-	-mi-	-po-	-mo-	-ti-	4d\	-vu-	-mi-	-po-	-mo-	-ti-	4A/	-vu-	-mi-	-po-	-mo-	-ti-	.	.	.	.	.	.
=13	=13	=13	=13	=13	=13	=13	=13	=13	=13	=13	=13	=13	=13	=13	=13	=13	=13	=13	=13	=13	=13	=13	=13	=13
1GG/	.	-lo	-nis	-re	-num	-a	1d\,<	-lo	-nis	-re	-nu(m)	-a	1B\	-lo	-nis	-re	-num	-a	1g\	-lo	-nis	-re,	-nu(m)	-â,
2G\	.	red-	ru(m)-	mi-	ſae-	Poe-	2d\	red-	rum-	mi-	ſae-	poe-	2B\	red-	rum-	mi-	ſae-	poe-	2g\	red-	rum-	mi-	ſae-	poe-
=14	=14	=14	=14	=14	=14	=14	=14	=14	=14	=14	=14	=14	=14	=14	=14	=14	=14	=14	=14	=14	=14	=14	=14	=14
2.G\	.	-dis	-pen-	-gra-	-uum-	-nas	2.d\	-dis	-pen-	-gra-	-uum-	-nas	2.B\	-dis	-pen-	-gra-	-vum-	-nas	2.d\	-diſ	-pen-	-gra-	-vum-	-nas
4E\	.	pe-	-do	-uit	-q(ae)	re-	4A/	pe-	-do	-uit	-q(ae)	re-	4c\	pe-	-do	-uit	-q(ae)	re-	4e\	pe-	-do	-vit	-q(ae)	re-
2D/	.	-ren-	ne-	in-	A-	-mit-	2A/	-ren-	ne-	in-	A-	-mit-	2d\	-ren-	ne-	in-	A-	-mit-	2f\	-ren-	ne-	in-	A-	-mit-
=15	=15	=15	=15	=15	=15	=15	=15	=15	=15	=15	=15	=15	=15	=15	=15	=15	=15	=15	=15	=15	=15	=15	=15	=15
2AA/	.	-ne	-xum	-ter	-uer-	-tas	2F/	-ne	-xum	-ter	-ver-	-tas	2c\	-ne	-xum	-ter	-uer-	-tas	2a\	-ne	-xum	-ter	-ver-	-tas
2.C/	.	prae-	Vin-	ſi-	-ni	de-	2.F/	prae-	Vin-	ſi-	-ni	de-	2.c\	prae-	Vin-	ſi-	-ni	de-	2.g\	p(rae)-	Vin-	ſy-	-ni	de-
4C/	.	-mi-	-cu-	-de-	.	-bi-	4E/	-mi-	-cu-	-de-	.	-bi-	4c\	-mi-	-cu-	-de-	.	-bi-	4g\	-mi-	-cu-	-de-	Prin-	-bi-
=16	=16	=16	=16	=16	=16	=16	=16	=16	=16	=16	=16	=16	=16	=16	=16	=16	=16	=16	=16	=16	=16	=16	=16	=16
1F\	.	-u(m)	-li	-ra	Prin-	-tas	1F/,<	-um	-li	-ra	Prin-	-tas	1c\	-um	-li	-ra	Prin-	-tas	1f\,<	-u(m)	-li	-ra	-ci-	-tas
*	*	*ij	*ij	*ij	*	*ij	*	*ij	*ij	*ij	*	*ij	*	*ij	*ij	*ij	*	*ij	*	*ij	*ij	*ij	*	*ij
2F\	.	red-	rum-	mi-	-ci-	Poe-	2c\	red-	rum-	mi-	-ci-	poe-	2c\	red-	rum-	mi-	-ci-	poe-	2a\	red-	rum-	mi-	pem	poe-
=17	=17	=17	=17	=17	=17	=17	=17	=17	=17	=17	=17	=17	=17	=17	=17	=17	=17	=17	=17	=17	=17	=17	=17	=17
*	*	*	*	*	*	*	*	*	*	*	*	*	*	*	*	*	*	*	*	*	*	*	*ij	*
2.A\	.	-dis	-pen-	-gra-	-pem	-nas	2.A/	-dis	-pen-	-gra-	-pem	-nas	2.c\	-dis	-pen-	-gra-	-pem	-nas	2.e\	-diſ	-pen-	-gra-	A-	-nas
*	*	*	*	*	*ij	*	*	*	*	*	*ij	*	*	*	*	*	*ij	*	*	*	*	*	*	*
4A\	.	pre-	-do	-uit	A-	re-	4A/	pre-	-do	-uit	A-	re-	4c\	pre-	-do	-uit	A-	re-	4f\	pe-	-do	-vit	.	re-
2E\	.	-ren-	ne-	in-	-uer-	-mit-	2G/	-ren-	ne-	in-	-ver-	-mit-	2e\	-ren-	ne-	in-	-ver-	-mit-	2g\	-ren-	ne-	in-	-ver-	-mit-
=18	=18	=18	=18	=18	=18	=18	=18	=18	=18	=18	=18	=18	=18	=18	=18	=18	=18	=18	=18	=18	=18	=18	=18	=18
2F\	.	-ne	-xum	-ter	-ni	-tas	2A/	-ne	-xum	-ter	-ni	-tas	2d\	-ne	-xum	-ter	-ni	-tas	2f\	-ne	-xum	-ter	-ni	-tas
2.A\	.	prae-	Vin-	ſi-	Prin-	de-	2.A/	prae-	Vin-	ſi-	prin-	de-	2.d\	prae-	Vin-	ſi-	prin-	de-	2.e\	p(rae)-	Vin-	ſy-	Prin-	de-
4A\	.	-mi-	-cu-	-de-	-ci-	-bi-	4A/	-mi-	-cu-	-de-	-ci-	-bi-	4c#X\	-mi-	-cu-	-de-	-ci-	-bi-	4e\	-mi-	-cu-	-de-	-ci-	-bi-
=19	=19	=19	=19	=19	=19	=19	=19	=19	=19	=19	=19	=19	=19	=19	=19	=19	=19	=19	=19	=19	=19	=19	=19	=19
1.D\;<	.	-u(m)	-li	-ra	-pem	-tas	1.A\;<	-um	-li	-ra	-pem	-tas	1.d\;<	-um	-li	-ra	-pem	-tas	1.d\	-u(m)	-li	-ra	-pem	-tas
*	*	*Xij	*Xij	*Xij	*Xij	*Xij	*	*Xij	*Xij	*Xij	*Xij	*Xij	*	*Xij	*Xij	*Xij	*Xij	*Xij	*	*Xij	*Xij	*Xij	*Xij	*Xij
==	==	==	==	==	==	==	==	==	==	==	==	==	==	==	==	==	==	==	==	==	==	==	==	==
*-	*-	*-	*-	*-	*-	*-	*-	*-	*-	*-	*-	*-	*-	*-	*-	*-	*-	*-	*-	*-	*-	*-	*-	*-
!!!system-decoration: [(s1,s2,s3,s4)]
!!!ENC: Andrzej Gręziak
!!!END: 2021-03-25
!!!RDF**kern: > = above
!!!RDF**kern: < = below
!!!EED: Andrzej Borzym
!!!EST: 2021-04-06
